component-icons/svg/treelist.svg

<?xml version="1.0" encoding="utf-8"?>
<!-- Generator: Adobe Illustrator 24.2.3, SVG Export Plug-In . SVG Version: 6.00 Build 0)  -->
<svg version="1.1" id="Layer_1" xmlns="http://www.w3.org/2000/svg" xmlns:xlink="http://www.w3.org/1999/xlink" x="0px" y="0px"
	 width="24px" height="24px" viewBox="0 0 24 24" enable-background="new 0 0 24 24" xml:space="preserve">
<path d="M14,10h-4v4h4V10z M20,5H10v2h8L20,5z M16,19h2l2-2h-4V19z M16,13h2l2-2h-4V13z M0,0v24h20l4-4V0H0z M22,19.2L19.2,22H2V2
	h20V19.2z M8,4H4v4h4V4z M14,16h-4v4h4V16z"/>
</svg>

<svg id="Layer_1" data-name="Layer 1" xmlns="http://www.w3.org/2000/svg" viewBox="0 0 24 24">
  <defs>
    <style>
      .cls-1 {
        fill: gray;
      }
    </style>
  </defs>
  <title>treelist</title>
  <path class="cls-1" d="M14,10H10v4h4Zm6-5H10V7h8ZM16,19h2l2-2H16Zm0-6h2l2-2H16ZM0,0V24H20l4-4V0ZM22,19.17,19.17,22H2V2H22ZM8,4H4V8H8Zm6,12H10v4h4Z"/>
</svg>
